X:1
T:Title
%%score { ( 1 3 ) | 2 }
L:1/8
M:9/4
K:Ab
V:1 treble nm="Grand Piano"
V:3 treble 
V:2 bass 
V:1
 z6 z6[Q:1/4=158] [CE]4 [CA]2 | [Ec]6 [Ec]6 [=D_c]4 [Fd]2 | [Ec]12 [Ec]4 [Ec]2 | B6 B6 c4 d2 | %4
[M:6/4] [Ec]12 |[M:3/4] [CE]4 [CA]2 |[M:9/4] [Ec]6 [Ec]6 [=D_c]4 [Fd]2 | [Ec]12 [Ec]4 [Ec]2 | %8
 [EB]6 [EG]6 [FA]4 [=DF]2 |[M:6/4] E12 | [CE]2 [CA]2 [DB]2 [Ec] [Ec]3 [Ec]2 | c2 B2 =A2 B6 | %12
 E2 G2 B2 d d3 d2 | c12 | e2 d2 c2 c2 B2 A2 | [EA]2 B2 c2 [Fd]6 | c2 E2 A2 c c3 B2 | [CA]12 |] %18
V:2
 z6 z6 [A,,A,]4 [A,,A,]2 | [A,,A,]6 [A,,A,]6 [A,,A,]4 [A,,A,]2 | [A,,A,]12 [A,,A,]4 [A,,A,]2 | %3
 [E,G,E]6 [E,G,E]6 [E,A,E]4 [E,B,E]2 |[M:6/4] [A,,A,]12 |[M:3/4] [A,,A,]4 [A,,A,]2 | %6
[M:9/4] [A,,A,]6 [A,,A,]6 [A,,A,]4 [A,,A,]2 | [A,,A,]12 [A,,A,]4 [A,,A,]2 | %8
 [B,,G,]6 [B,,B,]6 [B,,B,]4 [B,,A,]2 |[M:6/4] [E,G,]12 | %10
 [A,,A,]2 [A,,A,]2 [A,,A,]2 [A,,A,] [A,,A,]3 [A,,A,]2 | [E,A,E]2 [E,G,D]2 [E,_G,C]2 [E,=G,D]6 | %12
 [E,G,D]2 [E,B,D]2 [E,G,D]2 [E,G,E] [E,G,E]3 [E,G,E]2 | [A,E]12 | %14
 [A,CE]2 [A,B,E]2 [A,E]2 [A,E]2 [E,G,D]2 [F,A,C]2 | [C,A,]2 [E,G,E]2 [A,E]2 [D,A,]6 | %16
 [E,A,E]2 [E,A,C]2 [E,A,C]2 [E,A,E] [E,A,E]3 [E,G,D]2 | [A,,A,]12 |] %18
V:3
 x18 | x18 | x18 | x18 |[M:6/4] x12 |[M:3/4] x6 |[M:9/4] x18 | x18 | x18 |[M:6/4] z6 D6 | x12 | %11
 x12 | x12 | x12 | x12 | x12 | x12 | x12 |] %18

